humanity-icon-theme/Humanity/actions/128/help-contents.svg

<?xml version="1.0" encoding="UTF-8" standalone="no"?>
<!-- Created with Inkscape (http://www.inkscape.org/) -->

<svg
   xmlns:svg="http://www.w3.org/2000/svg"
   xmlns="http://www.w3.org/2000/svg"
   xmlns:xlink="http://www.w3.org/1999/xlink"
   version="1.0"
   width="128"
   height="128"
   id="svg3675">
  <defs
     id="defs3677">
    <linearGradient
       id="linearGradient8838">
      <stop
         id="stop8840"
         style="stop-color:#000000;stop-opacity:1"
         offset="0" />
      <stop
         id="stop8842"
         style="stop-color:#000000;stop-opacity:0"
         offset="1" />
    </linearGradient>
    <linearGradient
       id="linearGradient2490-182-124">
      <stop
         id="stop2788"
         style="stop-color:#1f4b6a;stop-opacity:1"
         offset="0" />
      <stop
         id="stop2790"
         style="stop-color:#4083c2;stop-opacity:1"
         offset="1" />
    </linearGradient>
    <linearGradient
       id="linearGradient3242-187-536">
      <stop
         id="stop2778"
         style="stop-color:#8badea;stop-opacity:1"
         offset="0" />
      <stop
         id="stop2780"
         style="stop-color:#6396cd;stop-opacity:1"
         offset="0.26238" />
      <stop
         id="stop2782"
         style="stop-color:#3b7caf;stop-opacity:1"
         offset="0.66093999" />
      <stop
         id="stop2784"
         style="stop-color:#194c70;stop-opacity:1"
         offset="1" />
    </linearGradient>
    <linearGradient
       id="linearGradient4873">
      <stop
         id="stop4875"
         style="stop-color:#ffffff;stop-opacity:1"
         offset="0" />
      <stop
         id="stop4877"
         style="stop-color:#ffffff;stop-opacity:0"
         offset="1" />
    </linearGradient>
    <linearGradient
       x1="63.397362"
       y1="-12.489107"
       x2="63.397362"
       y2="5.4675598"
       id="linearGradient2407"
       xlink:href="#linearGradient4873"
       gradientUnits="userSpaceOnUse"
       gradientTransform="matrix(5.64345,0,0,5.6429422,-286.50588,83.30933)" />
    <radialGradient
       cx="23.895569"
       cy="3.9900031"
       r="20.397499"
       fx="23.895569"
       fy="3.9900031"
       id="radialGradient2410"
       xlink:href="#linearGradient3242-187-536"
       gradientUnits="userSpaceOnUse"
       gradientTransform="matrix(0,6.102135,-8.0552513,0,96.659483,-138.25671)" />
    <linearGradient
       x1="18.379412"
       y1="44.980297"
       x2="18.379412"
       y2="3.0816143"
       id="linearGradient2412"
       xlink:href="#linearGradient2490-182-124"
       gradientUnits="userSpaceOnUse"
       gradientTransform="matrix(2.5569423,0,0,2.5567709,3.1523875,2.1353877)" />
    <radialGradient
       cx="62.625"
       cy="4.625"
       r="10.625"
       fx="62.625"
       fy="4.625"
       id="radialGradient2415"
       xlink:href="#linearGradient8838"
       gradientUnits="userSpaceOnUse"
       gradientTransform="matrix(5.7750605,0,0,2.0085789,-297.14415,94.222906)" />
  </defs>
  <path
     d="m 125.87901,103.5126 c 0,11.7864 -27.471807,21.34118 -61.36001,21.34118 -33.888198,0 -61.3600168,-9.55478 -61.3600168,-21.34118 0,-11.786422 27.4718188,-21.341187 61.3600168,-21.341187 33.888203,0 61.36001,9.554765 61.36001,21.341187 l 0,0 z"
     id="path8836"
     style="opacity:0.5;fill:url(#radialGradient2415);fill-opacity:1;fill-rule:evenodd;stroke:none;stroke-width:1;marker:none;visibility:visible;display:inline;overflow:visible" />
  <path
     d="m 64.519014,11.483576 c -28.701626,0 -52.017803,23.314603 -52.017803,52.014306 0,28.699691 23.316177,52.014288 52.017803,52.014288 28.701614,0 52.017826,-23.314597 52.017796,-52.014288 0,-28.699703 -23.316182,-52.014306 -52.017796,-52.014306 z"
     id="path2555"
     style="fill:url(#radialGradient2410);fill-opacity:1;stroke:url(#linearGradient2412);stroke-width:0.99915248;stroke-linecap:round;stroke-linejoin:round;stroke-miterlimit:4;stroke-opacity:1;stroke-dasharray:none;stroke-dashoffset:0" />
  <path
     d="M 115.5,63.496 C 115.5,90.752953 93.199766,114.73741 64.519635,114.5 35.007083,114.25468 13.845569,90.750522 13.5,63.496 13.143881,35.409382 36.786661,12.381294 64.519635,12.5 91.775038,12.616662 115.5,34.45973 115.5,63.496 l 0,0 z"
     id="path8655"
     style="opacity:0.4;fill:none;stroke:url(#linearGradient2407);stroke-width:0.99915248;stroke-miterlimit:4;stroke-opacity:1;stroke-dasharray:none" />
  <path
     d="M 66.947903,78.37211 C 66.771612,72.079769 68.181432,65.971236 74.126672,61.644337 80.406362,56.750885 86.454205,50.628522 85.815077,43.411633 85.675524,36.451594 77.565513,30.997648 68.827568,30.213466 c -9.828771,-1.36153 -21.721522,2.005366 -25.015077,9.680738 -1.670417,3.733038 -0.121385,10.430548 5.484506,10.430548 3.278898,0 4.784912,-2.117937 5.032326,-4.055353 0.187202,-1.465909 -0.41467,-2.774951 -0.770111,-3.985804 -0.405002,-1.379686 1.32392,-4.053666 3.206952,-5.143148 1.573491,-0.910398 3.219764,-1.215667 3.462431,-1.273986 5.650845,-1.357951 11.283921,1.64158 13.634141,5.292382 2.350221,3.650798 -0.236663,8.788108 -3.956001,14.173157 -3.719343,5.385074 -7.710859,11.901643 -7.694914,18.398164 0,2.473259 -0.220389,3.313458 -0.06379,4.314066 0.125095,0.799474 2.772474,0.702849 4.799872,0.32788 z M 64.369031,87 c -5.403098,-0.293281 -9.142795,5.672729 -5.896879,9.575047 2.898757,4.308533 11.026198,3.244949 12.419238,-1.634039 C 72.339649,91.146975 68.854393,86.936676 64.369033,87 l -2e-6,0 z"
     id="path9053"
     style="font-size:72px;font-style:normal;font-weight:bold;opacity:0.2;fill:#000000;fill-opacity:1;stroke:none;font-family:Standard Symbols L" />
  <path
     d="M 66.947903,79.440106 C 66.771612,73.147766 68.181432,67.039233 74.126672,62.712328 80.406362,57.818881 86.454205,51.696523 85.815077,44.479629 85.675524,37.51959 77.565513,32.065645 68.827568,31.281463 c -9.828771,-1.36153 -21.721522,2.005366 -25.015077,9.680738 -1.670417,3.733038 -0.121385,10.430557 5.484506,10.430557 3.278898,0 4.784912,-2.117946 5.032326,-4.055362 0.187202,-1.46591 -0.41467,-2.774951 -0.770111,-3.985805 -0.405002,-1.379686 1.32392,-4.053666 3.206952,-5.143147 1.573491,-0.910399 3.219764,-1.215668 3.462431,-1.273986 5.650845,-1.357952 11.283921,1.64158 13.634141,5.292381 2.350221,3.650798 -0.236663,9.188354 -3.956001,14.573401 -3.719343,5.385073 -7.710859,11.501399 -7.694914,17.997921 0,2.473259 -0.220389,3.313458 -0.06379,4.314065 0.125095,0.799475 2.772474,0.70285 4.799872,0.32788 z M 64.369031,88 C 58.965933,87.706719 55.226236,93.740725 58.472152,97.643044 61.370909,101.95158 69.49835,100.888 70.89139,96.009005 72.339649,92.21497 68.854393,87.936676 64.369033,88 l -2e-6,0 z"
     id="path3298"
     style="font-size:72px;font-style:normal;font-weight:bold;fill:#ffffff;fill-opacity:1;stroke:none;font-family:Standard Symbols L" />
</svg>

<?xml version="1.0" encoding="UTF-8" standalone="no"?>
<!-- Created with Inkscape (http://www.inkscape.org/) -->
<svg id="svg3675" xmlns="http://www.w3.org/2000/svg" height="128" width="128" version="1.0" xmlns:xlink="http://www.w3.org/1999/xlink">
 <defs id="defs3677">
  <linearGradient id="linearGradient2407" y2="5.4676" gradientUnits="userSpaceOnUse" x2="63.397" gradientTransform="matrix(5.6434 0 0 5.6429 -286.51 83.309)" y1="-12.489" x1="63.397">
   <stop id="stop4875" style="stop-color:#fff" offset="0"/>
   <stop id="stop4877" style="stop-color:#fff;stop-opacity:0" offset="1"/>
  </linearGradient>
  <radialGradient id="radialGradient2410" gradientUnits="userSpaceOnUse" cy="3.99" cx="23.896" gradientTransform="matrix(0 6.1021 -8.0553 0 96.659 -138.26)" r="20.397">
   <stop id="stop2778" style="stop-color:#8badea" offset="0"/>
   <stop id="stop2780" style="stop-color:#6396cd" offset=".26238"/>
   <stop id="stop2782" style="stop-color:#3b7caf" offset=".66094"/>
   <stop id="stop2784" style="stop-color:#194c70" offset="1"/>
  </radialGradient>
  <linearGradient id="linearGradient2412" y2="3.0816" gradientUnits="userSpaceOnUse" x2="18.379" gradientTransform="matrix(2.5569 0 0 2.5568 3.1524 2.1354)" y1="44.98" x1="18.379">
   <stop id="stop2788" style="stop-color:#1f4b6a" offset="0"/>
   <stop id="stop2790" style="stop-color:#4083c2" offset="1"/>
  </linearGradient>
  <radialGradient id="radialGradient2415" gradientUnits="userSpaceOnUse" cy="4.625" cx="62.625" gradientTransform="matrix(5.7751 0 0 2.0086 -297.14 94.223)" r="10.625">
   <stop id="stop8840" offset="0"/>
   <stop id="stop8842" style="stop-opacity:0" offset="1"/>
  </radialGradient>
 </defs>
 <path id="path8836" style="opacity:.5;fill-rule:evenodd;fill:url(#radialGradient2415)" d="m125.88 103.51c0 11.786-27.472 21.341-61.36 21.341s-61.36-9.5548-61.36-21.341 27.472-21.341 61.36-21.341 61.36 9.5548 61.36 21.341z"/>
 <path id="path2555" style="stroke-linejoin:round;stroke:url(#linearGradient2412);stroke-linecap:round;stroke-width:.99915;fill:url(#radialGradient2410)" d="m64.519 11.484c-28.702 0-52.018 23.315-52.018 52.014 0 28.7 23.316 52.014 52.018 52.014s52.018-23.315 52.018-52.014c0-28.7-23.316-52.014-52.018-52.014z"/>
 <path id="path8655" style="opacity:.4;stroke:url(#linearGradient2407);stroke-width:.99915;fill:none" d="m115.5 63.496c0 27.257-22.3 51.244-50.98 51.004-29.513-0.25-50.674-23.749-51.02-51.004-0.356-28.087 23.287-51.115 51.02-50.996 27.255 0.117 50.98 21.96 50.98 50.996z"/>
 <path id="path9053" style="opacity:.2" d="m66.948 78.372c-0.176-6.292 1.233-12.401 7.179-16.728 6.279-4.893 12.327-11.015 11.688-18.232-0.139-6.96-8.249-12.414-16.987-13.199-9.8288-1.3615-21.722 2.0054-25.015 9.6807-1.6704 3.733-0.12138 10.431 5.4845 10.431 3.2789 0 4.7849-2.1179 5.0323-4.0554 0.1872-1.4659-0.41467-2.775-0.77011-3.9858-0.405-1.3797 1.3239-4.0537 3.207-5.1431 1.5735-0.9104 3.2198-1.2157 3.4624-1.274 5.6508-1.358 11.284 1.6416 13.634 5.2924 2.3502 3.6508-0.23666 8.7881-3.956 14.173-3.7193 5.3851-7.7109 11.902-7.6949 18.398 0 2.4733-0.22039 3.3135-0.06379 4.3141 0.1251 0.79947 2.7725 0.70285 4.7999 0.32788zm-2.579 8.628c-5.4031-0.29328-9.1428 5.6727-5.8969 9.575 2.8988 4.3085 11.026 3.2449 12.419-1.634 1.449-3.794-2.037-8.004-6.522-7.941h-0.000002z"/>
 <path id="path3298" style="fill:#fff" d="m66.948 79.44c-0.176-6.292 1.233-12.401 7.179-16.728 6.279-4.893 12.327-11.015 11.688-18.232-0.139-6.96-8.249-12.414-16.987-13.199-9.8288-1.3615-21.722 2.0054-25.015 9.6807-1.6704 3.733-0.12138 10.431 5.4845 10.431 3.2789 0 4.7849-2.1179 5.0323-4.0554 0.1872-1.4659-0.41467-2.775-0.77011-3.9858-0.405-1.3797 1.3239-4.0537 3.207-5.1431 1.5735-0.9104 3.2198-1.2157 3.4624-1.274 5.6508-1.358 11.284 1.6416 13.634 5.2924 2.3502 3.6508-0.23666 9.1884-3.956 14.573-3.7193 5.3851-7.7109 11.501-7.6949 17.998 0 2.4733-0.22039 3.3135-0.06379 4.3141 0.1251 0.79948 2.7725 0.70285 4.7999 0.32788zm-2.579 8.56c-5.403-0.293-9.143 5.741-5.897 9.643 2.899 4.307 11.026 3.247 12.419-1.634 1.449-3.794-2.037-8.072-6.522-8.009h-0.000002z"/>
</svg>
